X:771
T:Danse des Paysans, Bergen. [4]
T:peasant dance from the Bj\/orgvin Diocese, Norway
C:John Malchair's Third Collection of Tunes
F:https://www.vwml.org/record/Malchair/3619/p77
F:www.vwml.org/topics/historic-dance-and-tune-books/Malchair
Z:Eric Conrad Mar 2020
N:In the MS, this is titled as "autre" ("other")
M:3/4
L:1/8
K:Am
P:A
|: {f}ec A2 z2 | ^cdef ge | !trill!f2 {ef}A2 (d^c) | {c}d2 d4 :|
P:B
|: f{(gf)}efg af | gfef ge | {g}fe dfed | ^cdec Ac | defg aA | d2 A4 :|


